assets/icons/uE02E-up.svg

<svg xmlns="http://www.w3.org/2000/svg" width="896" height="1232" viewBox="0 0 896 1232"><path d="M884 582q25 30 4 63-17 27-48 27-7 0-11-1l-213-43v268q0 23-16.5 39.5T560 952H336q-23 0-39.5-16.5T280 896V628L67 671q-4 1-11 1-31 0-48-27-21-33 4-63L404 78q16-22 44-22t44 22zm-324-22l280 56-392-504L56 616l280-56v336h224V560z"/></svg>

<?xml version="1.0" encoding="UTF-8" standalone="no"?><svg   xmlns:svg="http://www.w3.org/2000/svg"   xmlns="http://www.w3.org/2000/svg"   version="1.1"   width="896"   height="1232"   viewBox="0 0 896 1232">  <path     d="M884 582Q909 612 888 645Q871 672 840 672Q833 672 829 671L616 628V896Q616 919 599.5 935.5T560 952H336Q313 952 296.5 935.5T280 896V628L67 671Q63 672 56 672Q25 672 8 645Q-13 612 12 582L404 78Q420 56 448 56T492 78zM560 560L840 616L448 112L56 616L336 560V896H560V560z"     id="icon76" /></svg>
